svgs/tasker.svg

<svg xmlns="http://www.w3.org/2000/svg" viewBox="0 0 192 192"><path d="M79.608 16.5a4.046 4.046 0 0 0-2.636.938 3.849 3.849 0 0 0-1.347 2.397l-3.068 21.058a61.593 61.593 0 0 0-13.782 7.756l-20.396-7.911a4.086 4.086 0 0 0-2.821-.065 3.957 3.957 0 0 0-2.158 1.771L17.068 70.017a3.79 3.79 0 0 0-.499 2.725 3.866 3.866 0 0 0 1.495 2.355l17.208 13.147A62.897 62.897 0 0 0 34.715 96c.024 2.594.21 5.184.557 7.756l-17.208 13.147a3.866 3.866 0 0 0-1.495 2.355 3.79 3.79 0 0 0 .499 2.725L33.4 149.556a3.957 3.957 0 0 0 2.158 1.771 4.086 4.086 0 0 0 2.821-.065l19.201-7.756 24.179-39.052-33.58-23.501 75.685-37.927a61.623 61.623 0 0 0-4.621-2.133l-3.067-21.058a4.046 4.046 0 0 0-1.387-2.352 4.244 4.244 0 0 0-2.596-.983Zm75.367 23.966c-.478.009-.95.101-1.394.272l-19.2 7.562-24.18 39.052 33.58 23.695-75.685 37.927a61.807 61.807 0 0 0 4.621 2.133l3.067 21.058a3.849 3.849 0 0 0 1.347 2.397c.733.614 1.67.947 2.636.938h32.665a4.046 4.046 0 0 0 2.636-.938 3.849 3.849 0 0 0 1.347-2.397l3.067-21.058a61.578 61.578 0 0 0 13.783-7.756l20.356 7.989c.9.356 1.904.379 2.821.065a3.963 3.963 0 0 0 2.158-1.772l16.332-27.573a3.79 3.79 0 0 0 .499-2.725 3.866 3.866 0 0 0-1.495-2.355l-17.288-13.224a62.51 62.51 0 0 0 .558-7.756 62.51 62.51 0 0 0-.558-7.756l17.248-13.147a3.862 3.862 0 0 0 1.495-2.355 3.79 3.79 0 0 0-.499-2.725L158.56 42.444a3.939 3.939 0 0 0-1.509-1.475 4.076 4.076 0 0 0-2.076-.503Z" fill="none" stroke="#000" stroke-width="12" stroke-linecap="round" stroke-linejoin="round"/></svg>

<svg
    xmlns="http://www.w3.org/2000/svg"
    viewBox="0 0 192 192"
    id="vector">
    <path
        id="path"
        d="M 79.608 16.5 C 78.642 16.491 77.704 16.824 76.972 17.438 C 76.239 18.051 75.76 18.904 75.625 19.835 L 72.557 40.893 C 67.636 42.883 63.002 45.49 58.775 48.649 L 38.379 40.738 C 37.479 40.382 36.475 40.359 35.558 40.673 C 34.641 40.987 33.873 41.617 33.4 42.444 L 17.068 70.017 C 16.563 70.835 16.385 71.805 16.569 72.742 C 16.753 73.679 17.285 74.518 18.064 75.097 L 35.272 88.244 C 34.927 90.816 34.74 93.406 34.715 96 C 34.739 98.594 34.925 101.184 35.272 103.756 L 18.064 116.903 C 17.285 117.482 16.753 118.321 16.569 119.258 C 16.385 120.195 16.563 121.165 17.068 121.983 L 33.4 149.556 C 33.873 150.383 34.641 151.013 35.558 151.327 C 36.475 151.641 37.479 151.618 38.379 151.262 L 57.58 143.506 L 81.759 104.454 L 48.179 80.953 L 123.864 43.026 C 122.351 42.25 120.837 41.552 119.243 40.893 L 116.176 19.835 C 116.004 18.92 115.514 18.09 114.789 17.483 C 114.065 16.876 113.148 16.529 112.193 16.5 Z M 154.975 40.466 C 154.497 40.475 154.025 40.567 153.581 40.738 L 134.381 48.3 L 110.201 87.352 L 143.781 111.047 L 68.096 148.974 C 69.61 149.75 71.123 150.448 72.717 151.107 L 75.784 172.165 C 75.919 173.096 76.398 173.949 77.131 174.562 C 77.864 175.176 78.801 175.509 79.767 175.5 L 112.432 175.5 C 113.398 175.509 114.336 175.176 115.068 174.562 C 115.801 173.949 116.28 173.096 116.415 172.165 L 119.482 151.107 C 124.404 149.117 129.038 146.51 133.265 143.351 L 153.621 151.34 C 154.521 151.696 155.525 151.719 156.442 151.405 C 157.359 151.09 158.127 150.46 158.6 149.633 L 174.932 122.06 C 175.437 121.243 175.615 120.272 175.431 119.335 C 175.247 118.398 174.715 117.559 173.936 116.98 L 156.648 103.756 C 156.995 101.184 157.181 98.594 157.206 96 C 157.181 93.406 156.995 90.816 156.648 88.244 L 173.896 75.097 C 174.675 74.518 175.208 73.679 175.391 72.742 C 175.575 71.805 175.397 70.835 174.892 70.017 L 158.56 42.444 C 158.205 41.828 157.682 41.318 157.051 40.969 C 156.419 40.62 155.701 40.447 154.975 40.466 Z"
        fill="none"
        stroke="#000000"
        stroke-width="12"
        stroke-linecap="round"
        stroke-linejoin="round"/>
</svg>
